!!!!SEGMENT: Bau1002e-Missa_En_douleur_en_tristesse-Agnus.krn
!!!id: Bau1002e
!!!OTL: Agnus
!!!AGN: Mass; Agnus
!!!SCT: Lenaerts (1963)
!!!voices: 5
!!!COM: Noel Bauldeweyn
!!!OPR: Missa En douleur en tristesse
**kern	**kern	**kern	**kern	**kern
*part5	*part4	*part3	*part2	*part1
*staff5	*staff4	*staff3	*staff2	*staff1
*I"Bassus	*I"Tenor II	*I"Tenor I	*I"Altus	*I"Superius
*I'B	*I'T. II	*I'T. I	*I'A	*I'S
*clefF4	*clefGv2	*clefGv2	*clefGv2	*clefG2
*k[b-]	*k[b-]	*k[b-]	*k[b-]	*k[b-]
*F:	*F:	*F:	*F:	*F:
*M2/1	*M2/1	*M2/1	*M2/1	*M2/1
*met(C|)	*met(C|)	*met(C|)	*met(C|)	*met(C|)
!!section: Agnus Dei I
!!!OMD: Agnus Dei I
=1	=1	=1	=1	=1
!LO:TX:a:t=Canon&colon; bassus/tenor I at the octave	!	!	!	!
0r	0r	0r	0r	1.g
.	.	.	.	2b-y
=2	=2	=2	=2	=2
0r	1r	0r	0r	2a
.	.	.	.	2g
.	[1G	.	.	[1dd
=3	=3	=3	=3	=3
0r	2G]	0r	0r	2dd]
.	2B-y	.	.	2dd
.	2A	.	.	2cc
.	2G	.	.	2b-y
=4	=4	=4	=4	=4
0r	1.d	0r	1.G	2g
.	.	.	.	2.b-y
.	.	.	.	4a
.	2d	.	2B-y	2g
=5	=5	=5	=5	=5
1r	2c	0r	2A	2f
.	2.B-y	.	2G	1g
[1GG	.	.	[1d	.
.	4A	.	.	.
.	[2G	.	.	4f
.	.	.	.	4e
=6	=6	=6	=6	=6
2GG]	4G]	0r	2d]	1d
.	4F	.	.	.
2BB-y	4D	.	2d	.
.	4E	.	.	.
2AA	2F	.	2c	2r
2GG	2G	.	2B-y	[2g
=7	=7	=7	=7	=7
1D	1D	1r	1A	2g]
.	.	.	.	2f#i
1r	2.E	[1G	2G	1g
.	.	.	[2g	.
.	4F	.	.	.
=8	=8	=8	=8	=8
0r	1G	2G]	4g]	1g
.	.	.	4f	.
.	.	2B-y	2d	.
.	1C	2A	1e	1cc
.	.	2G	.	.
=9	=9	=9	=9	=9
1D	2r	1d	1f	1a
.	2F	.	.	.
2.BB-y	2G	1r	1d	1b-y
.	[2F	.	.	.
4C	.	.	.	.
=10	=10	=10	=10	=10
2D	2F]	0r	2r	2a
2BB-y	1B-y	.	2D	1g
1C	.	.	1E	.
.	2A	.	.	4f
.	.	.	.	4e
=11	=11	=11	=11	=11
1BB-y	2.B-y	1d	2F	1d
.	.	.	2.G	.
.	4c	.	.	.
1GG	1d	2.B-y	.	1g
.	.	.	4A	.
.	.	.	[2B-y	.
.	.	4c	.	.
=12	=12	=12	=12	=12
1BB-y	2D	2d	4B-]	2f
.	.	.	4A	.
.	2E	2B-y	1G	2g
1AA	1C	1c	.	1a
.	.	.	2F#i	.
=13	=13	=13	=13	=13
0GG	0D	1B-y	0G	2b-y
.	.	.	.	1g
.	.	1G	.	.
.	.	.	.	[2b-y
=14	=14	=14	=14	=14
1.D	2.BB-y	1B-y	0r	4b-]
.	.	.	.	4a
.	.	.	.	1g
.	4C	.	.	.
.	1D	1A	.	.
2D	.	.	.	2f#i
=15	=15	=15	=15	=15
1BB-y	1d	0G	0r	2g
.	.	.	.	2d
1C	1c	.	.	1e
=16	=16	=16	=16	=16
1BB-y	2F	1.d	1.B-y	1d
.	1G	.	.	.
2r	.	.	.	1r
[2BB-y	4F	2d	4A	.
.	4E	.	4G	.
=17	=17	=17	=17	=17
4BB-]	4D	1B-y	2F	0r
4C	4E	.	.	.
2D	4F	.	2f	.
.	4G	.	.	.
2C	4A	1c	2e	.
.	4G	.	.	.
2AA	2A	.	2f	.
=18	=18	=18	=18	=18
1GG	2D	1B-y	1g	0r
.	2G	.	.	.
1D	2A	2r	1f	.
.	2F	[2B-y	.	.
=19	=19	=19	=19	=19
1BB-y	1B-y	4B-]	1f	0r
.	.	4c	.	.
.	.	2d	.	.
[1C	2G	2c	2.e	.
.	[2c	2A	.	.
.	.	.	4f	.
=20	=20	=20	=20	=20
2C]	2c]	1G	4g	0r
.	.	.	4a	.
2C	2c	.	1g	.
2BB-y	1F	1d	.	.
2AA	.	.	[2f	.
=21	=21	=21	=21	=21
1GG	1G	1B-y	2f]	2r
.	.	.	2e	2g
1FF	2r	[1c	1f	2a
.	[2C	.	.	4cc
.	.	.	.	4b-y
=22	=22	=22	=22	=22
1r	4C]	2c]	1e	4a
.	4D	.	.	4g
.	4E	2c	.	2.g
.	4F	.	.	.
2r	2G	2B-y	2d	.
.	.	.	.	8f#iL
.	.	.	.	8eJ
2D	2D	2A	[2d	2f#i
=23	=23	=23	=23	=23
1E	2r	1G	4d]	1g
.	.	.	8cL	.
.	.	.	8B-yJ	.
.	2G	.	2c	.
2D	2A	1F	1d	2r
[2D	[2B-y	.	.	2d
=24	=24	=24	=24	=24
2D]	2B-]	1r	1g	1e
2C	2c	.	.	.
2D	2A	2r	1f	1d
2BB-y	2B-y	2d	.	.
=25	=25	=25	=25	=25
1C	2G	1e	0r	1g
.	2c	.	.	.
1D	1A	2d	.	[1f
.	.	[2d	.	.
=26	=26	=26	=26	=26
2BB-y	2B-y	2d]	2D	2f]
2C	2G	2c	2E	2e
2BB-y	1B-y	2d	2F	2d
2GG	.	2B-y	[2G	[2dd
=27	=27	=27	=27	=27
1AA	1A	1c	2G]	2dd]
.	.	.	2F#i	2cc
1GG	2D	1d	4G	2.b-y
.	.	.	4A	.
.	[2G	.	4B-y	.
.	.	.	4c	4a
=28	=28	=28	=28	=28
0r	2G]	2B-y	4d	2b-y
.	.	.	4e	.
.	2F	2c	2f	2.a
.	2G	2B-y	2e	.
.	.	.	.	4g
.	2E	2G	2c	[2g
=29	=29	=29	=29	=29
1D	1D	1A	1d	2g]
.	.	.	.	2f#i
1E	2r	1G	2B-y	1g
.	2G	.	2c	.
=30	=30	=30	=30	=30
2D	2A	0r	1d	2r
1D	1B-y	.	.	2d
.	.	.	1g	1e
2C	2c	.	.	.
=31	=31	=31	=31	=31
2D	2A	1d	1f	1d
2BB-y	2B-y	.	.	.
1C	2G	1e	1r	1g
.	2c	.	.	.
=32	=32	=32	=32	=32
1D	1A	2d	1F	1.f
.	.	1d	.	.
2BB-y	2B-y	.	2D	.
2C	2G	2c	2E	2e
=33	=33	=33	=33	=33
2BB-y	1B-y	2d	2F	2d
2GG	.	2B-y	2.G	1dd
1AA	1A	1c	.	.
.	.	.	4F	.
.	.	.	4E	2cc
.	.	.	4D	.
=34	=34	=34	=34	=34
2GG	2r	1d	4G	2.b-y
.	.	.	4A	.
1G	2B-y	.	4B-y	.
.	.	.	4c	4a
.	2G	2B-y	4d	2b-y
.	.	.	4e	.
2F	2A	2c	2f	[2a
=35	=35	=35	=35	=35
2G	2B-y	2B-y	2d	2a]
2E	2c	2G	2c	1g
1D	2F	1A	1d	.
.	2D	.	.	2f#i
=36	=36	=36	=36	=36
[0GGl	1E	[0Gl	2B-y	[0gl
.	.	.	2c	.
.	[1Dl	.	[1dl	.
=	=	=	=	=
00GG]	00D]	00G]	00d]	00g]
=||	=||	=||	=||	=||
*M2/1	*M2/1	*M2/1	*M2/1	*M2/1
*met(C|)	*met(C|)	*met(C|)	*met(C|)	*met(C|)
!LO:TX:a:t=Canon&colon; bassus/tenor I at the octave	!	!	!	!
!!section: Agnus Dei II
!!!OMD: Agnus Dei II
!	!	!	!	!LO:TX:a:t=Agnus Dei II
0r	1G	0r	0r	0r
.	1B-y	.	.	.
=37	=37	=37	=37	=37
0r	1A	0r	1r	0r
.	4G	.	1G	.
.	4A	.	.	.
.	4B-y	.	.	.
.	4c	.	.	.
=38	=38	=38	=38	=38
0r	2.d	0r	1B-y	0r
.	8cL	.	.	.
.	8B-yJ	.	.	.
.	1c	.	1A	.
=39	=39	=39	=39	=39
0r	1B-y	0r	4G	1g
.	.	.	4A	.
.	.	.	4B-y	.
.	.	.	4c	.
.	2r	.	2.d	1b-y
.	2G	.	.	.
.	.	.	8cL	.
.	.	.	8B-yJ	.
=40	=40	=40	=40	=40
1r	2A	0r	1c	1a
.	2F	.	.	.
1GG	2G	.	[1B-y	4g
.	.	.	.	4a
.	[2D	.	.	4b-y
.	.	.	.	4cc
=41	=41	=41	=41	=41
1BB-y	2D]	0r	2B-]	2.dd
.	1G	.	2G	.
.	.	.	.	8ccL
.	.	.	.	8b-yJ
1AA	.	.	1A	1cc
.	2F#i	.	.	.
=42	=42	=42	=42	=42
0GG	2G	1G	2B-y	2.b-y
.	2.B-y	.	2G	.
.	.	.	.	4a
.	.	1B-y	1d	4g
.	4A	.	.	4f
.	2G	.	.	[2g
=43	=43	=43	=43	=43
1D	1D	1A	2r	2g]
.	.	.	2.d	2f#i
1r	2r	[1G	.	[1g
.	.	.	4c	.
.	[2d	.	[2B-y	.
=44	=44	=44	=44	=44
1r	2d]	1G]	2B-]	1g]
.	4c	.	4A	.
.	4B-y	.	4G	.
[1D	2A	1d	2.F	1r
.	2B-y	.	.	.
.	.	.	4G	.
=45	=45	=45	=45	=45
2D]	2A	0r	2F	0r
2BB-y	2D	.	1B-y	.
1C	1E	.	.	.
.	.	.	2A	.
=46	=46	=46	=46	=46
0BB-y	2F	1.d	0B-y	2f
.	2.B-y	.	.	2g
.	.	.	.	2f
.	4A	.	.	.
.	2G	2B-y	.	[2b-y
=47	=47	=47	=47	=47
1r	1F	1c	1r	2b-]
.	.	.	.	2a
1GG	2.D	[1B-y	2r	[1b-y
.	.	.	[2d	.
.	4E	.	.	.
=48	=48	=48	=48	=48
1BB-y	2D	1B-]	2d]	2b-]
.	1G	.	2B-y	2g
1AA	.	1r	1c	1a
.	2F#i	.	.	.
=49	=49	=49	=49	=49
0GG	0G	1G	1.B-y	2d
.	.	.	.	2e
.	.	1B-y	.	2d
.	.	.	2G	[2g
=50	=50	=50	=50	=50
1D	2r	1A	1A	2g]
.	2D	.	.	2f#i
1BB-y	1d	[1G	1B-y	[1g
=51	=51	=51	=51	=51
1C	1c	1G]	1r	1g]
2D	2A	1d	2r	[1f
2BB-y	[2B-y	.	[2d	.
=52	=52	=52	=52	=52
2D	4B-]	1B-y	4d]	2f]
.	4A	.	4c	.
2E-i	4G	.	1B-y	2g
.	4F	.	.	.
1C	2G	1c	.	1e
.	2A	.	2A	.
=53	=53	=53	=53	=53
1BB-y	1D	2d	4B-y	2d
.	.	.	4c	.
.	.	2B-y	4d	2.dd
.	.	.	4e	.
1r	1r	2d	2f	.
.	.	.	.	4cc
.	.	2e-i	2g	[2b-y
=54	=54	=54	=54	=54
1r	1.F	1c	1f	4b-]
.	.	.	.	8aL
.	.	.	.	8gJ
.	.	.	.	2a
1BB-y	.	1B-y	[1d	1b-y
.	2G	.	.	.
=55	=55	=55	=55	=55
1D	2F	0r	1d]	0r
.	1B-y	.	.	.
1C	.	.	1r	.
.	2A	.	.	.
=56	=56	=56	=56	=56
1.BB-y	2G	1B-y	1.d	0r
.	2F	.	.	.
.	1B-y	1d	.	.
2GG	.	.	[2g	.
=57	=57	=57	=57	=57
1AA	1A	1c	2g]	2r
.	.	.	2f#i	2a
1GG	2D	[1B-y	2g	4b-y
.	.	.	.	4a
.	[2G	.	4G	4g
.	.	.	4A	4f
=58	=58	=58	=58	=58
0r	4G]	2B-]	2B-y	4e
.	4F	.	.	4d
.	2E	2G	2c	2.g
.	1D	1A	2.d	.
.	.	.	.	4f
.	.	.	.	4f
.	.	.	4c	4e
=59	=59	=59	=59	=59
1r	2E-X	1G	4B-y	2g
.	.	.	4G	.
.	2C	.	1c	2g
1D	1F	1r	.	1d
.	.	.	2Bni	.
=60	=60	=60	=60	=60
1C	2G	0r	1c	1e
.	2.A	.	.	.
1AA	.	.	4c	1c
.	4G	.	4B-y	.
.	4F	.	4A	.
.	4E	.	4G	.
=61	=61	=61	=61	=61
1BB-y	1D	1d	1F	2.f
.	.	.	.	4g
[1AA	2E	1c	1r	4a
.	.	.	.	4b-y
.	2C	.	.	[2cc
=62	=62	=62	=62	=62
2AA	1F	1A	1r	2cc]
2FF	.	.	.	2a
1GG	2.D	1B-y	2r	[1dd
.	.	.	2G	.
.	4E	.	.	.
=63	=63	=63	=63	=63
1FF	4F	1.A	4A	2dd]
.	4G	.	4B-y	.
.	4A	.	4c	1cc
.	4B-y	.	4d	.
1r	1c	.	2e	.
.	.	2F	[2f	2a
=64	=64	=64	=64	=64
1r	2.B-y	1G	2f]	1b-y
.	.	.	2e	.
.	4c	.	.	.
1D	4d	1F	2f	[1a
.	4e	.	.	.
.	[2f	.	[2F	.
=65	=65	=65	=65	=65
1F	4f]	0r	4F]	2a]
.	4e	.	4G	.
.	1d	.	1A	2f
1E	.	.	.	1g
.	2c	.	2G	.
=66	=66	=66	=66	=66
1.D	2d	1d	1A	1.f
.	4c	.	.	.
.	4B-y	.	.	.
.	2A	1f	1d	.
2BB-y	2B-y	.	.	2d
=67	=67	=67	=67	=67
1C	1G	1e	1c	1g
1D	1r	[1d	1A	[1f
=68	=68	=68	=68	=68
0r	1r	2d]	1B-y	2f]
.	.	2B-y	.	2d
.	2r	1c	1A	1e
.	2A	.	.	.
=69	=69	=69	=69	=69
1BB-y	2F	1d	1D	1d
.	1G	.	.	.
1C	.	1r	1r	1r
.	[2A	.	.	.
=70	=70	=70	=70	=70
2.D	4A]	1r	0r	1r
.	4G	.	.	.
.	4F	.	.	.
4C	4E	.	.	.
2BB-y	2D	1B-y	.	1dd
2GG	[2G	.	.	.
=71	=71	=71	=71	=71
1AA	2G]	1c	1A	1cc
.	2F#i	.	.	.
1GG	2G	2.d	2B-y	2.b-y
.	2D	.	[2d	.
.	.	4c	.	4a
=72	=72	=72	=72	=72
1r	1E	2B-y	2d]	4g
.	.	.	.	4f
.	.	2G	2c	1g
1D	2D	1A	2.d	.
.	[2d	.	.	2f#i
.	.	.	4c	.
=73	=73	=73	=73	=73
1E	2d]	1G	2B-y	1g
.	2c	.	2G	.
2D	2d	1r	1A	1r
[2F	2A	.	.	.
=74	=74	=74	=74	=74
4F]	2r	1d	0r	1r
4E	.	.	.	.
1D	2.A	.	.	.
.	.	1e	.	2r
.	4B-y	.	.	.
2C	2c	.	.	2g
=75	=75	=75	=75	=75
1D	1A	2d	0r	2f
.	.	2.f	.	2a
1BB-y	1B-y	.	.	2g
.	.	4e	.	.
.	.	[2d	.	2f
=76	=76	=76	=76	=76
0r	2G	2d]	0r	1e
.	2A	2c#i	.	.
.	2.D	1d	.	1d
.	4E	.	.	.
=77	=77	=77	=77	=77
1BB-y	2F	1B-y	1d	1dd
.	2G	.	.	.
1C	2G	1r	1e	1cc
.	[2A	.	.	.
=78	=78	=78	=78	=78
2.D	4A]	1r	1.f	1a
.	4G	.	.	.
.	4F	.	.	.
4C	4E	.	.	.
2BB-y	1D	1B-y	.	1b-y
2GG	.	.	2g	.
=79	=79	=79	=79	=79
1AA	2r	1c	2e	2.a
.	2A	.	2f	.
.	.	.	.	4cc
2GG	2B-y	2.d	2g	2b-y
2D	2F	.	[2d	[2a
.	.	4c	.	.
=80	=80	=80	=80	=80
1E	2G	2B-y	2d]	2a]
.	2C	2G	2c	1g
1D	1r	1A	1d	.
.	.	.	.	2f#i
=81	=81	=81	=81	=81
2GG	1.E-X	[0Gl	0r	1g
1C	.	.	.	.
.	.	.	.	2r
2C	2E-i	.	.	[2cc
=82	=82	=82	=82	=82
2C	2E-i	0G_	1.g	2cc]
2C	2E-i	.	.	2cc
1C	1E-i	.	.	2cc
.	.	.	2g	2cc
=83	=83	=83	=83	=83
[0GGl	[0Dl	0G_	2g	1.b-y
.	.	.	2g	.
.	.	.	1g	.
.	.	.	.	2g
=84	=84	=84	=84	=84
00GG]	00D]	00G]	00dl	00gl
==	==	==	==	==
*-	*-	*-	*-	*-
!!!system-decoration: [*]
!!!RDF**kern: i = editorial accidental
!!!RDF**kern: l = terminal long
!!!ENC: Benjamin Ory
!!!END: 2021/2/22
!!!EED: Benjamin Ory
!!!EEV: 2021/04/22
!!!YEC: Copyright 2021 Benjamin Ory, All Rights Reserved
!!!ONB: Translated from MusicXML on 2021/04/22
